X: 148118
T: The DARK HAIRED YOUTH
Q: "Slow."
%R: air, jig
B: James Kerr "Merry Melodies" v.1 p.48 s.1 #18
Z: 2016 John Chambers <jc:trillian.mit.edu>
M: 6/8
L: 1/8
K: G
[|\
G>AG GAB | vE2vG GED |\
vd2vd ud2uB | e2d B>AB |\
G>AG GAB | E2G GED ||\
deB ud2uB | deB d2d |\
egd e2B | e2d BAB |\
G>AG GAB | E2G GED |]

%%sep 1 1 500
%%sep 1 1 500

